X: 1
T: la Meuni\`ere au Moulin
R: mazurka, waltz
S: Qu\'ebec City workshop, from Betsy Hooper
M: 3/8
L: 1/16
K: Gdor
GA |\
B3 A Bc | B4 GA |\
B3 A Bd | A4 ::\
Bc |\
B2 AG AG | F2 D2 Bc |\
B2 AG AF | G4 :|
